X:1
T:Fur Elise
T:Für Elise
T: (Mallet Percussion Duet)
T:Ludwig van Beethoven
T:Zaiden Allen
T:?
T:?
T:?
T:?
C:Ludwig van Beethoven
Z:Zaiden Allen
Z:?
%%score 1 2
L:1/8
Q:1/4=118
M:3/4
K:C
V:1 treble transpose=12 nm="Xylophone" snm="Xyl."
V:2 treble nm="Marimba" snm="Mrm."
V:1
 e_e | e_e =eB dc | A2 z C EA | B2 z E _AB | c2 z E e_e | e_e =eB dc | A2 z C EA | B2 z E cB |1 %8
 A2 z2 :|2 A2 z B cd |: e2 z G fe | d2 z F ed | c2 z E dc | B2 z E eE | ee e'_e =e_e | %15
 e_e =e_e =e_e | e_e =eB dc | A2 z C EA | B2 z E _AB | c2 z E e_e | e_e =eB dc | A2 z C EA | %22
 B2 z E cB |1 A2 z B cd :|2 A2 z [Ec] [Fc][Gc] || c4 f>e | e2 d2 _b>a | ag fe dc | %28
 _B2 A2{B} A/G/A/B/ | c4 d^d | e2 z e fA | c4 d>B | c/g/G/g/ A/g/B/g/ c/g/d/g/ | %33
 e/g/c'/b/ a/g/f/e/ d/g/f/d/ | c/g/G/g/ A/g/B/g/ c/g/d/g/ | e/g/c'/b/ a/g/f/e/ d/g/f/d/ | %36
 e/f/e/^d/ e/B/e/d/ e/B/e/d/ | e3 B e_e | e3 B e_e | e_e =e_e =e_e | e_e =eB dc | A2 z C EA | %42
 B2 z E _AB | c2 z E e_e | e_e =eB dc | A2 z C EA | B2 z E cB | A2 z B cd | e2 z G fe | d2 z F ed | %50
 c2 z E dc | B2 z E eE | eb e'_e =e_e | e_e =e_e =e_e | e_e =eB dc | A2 z C EA | B2 z E _AB | %57
 c2 z E e_e | e_e =eB dc | A2 z C EA | B2 z E cB | A2 z2 z2 | [EG_B^c]6 | [FAd]4 [^ce][df] | %64
 [^Gdf]4 [Gdf]2 | [Ace]6 | [Fd]4 [Ec][DB] | [C^FA]4 [CA]2 | [CA]2 [Ec]2 [DB]2 | [CA]2 z4 | %70
 [EG_B^c]6 | [FAd]4 [^ce][df] | [df]4 [df]2 | [df]6 | [G_e]4 [Fd][_Ec] | [DF_B]4 [DFA]2 | %76
 [DF^G]4 [DFG]2 | [CEA]6 | [EB]2 z2 z2 | (3A,CE (3Ace (3dcB | (3Ace (3ac'e' (3d'c'b | %81
 (3ac'e' (3a'c''e' (3d'c'b | (3_ba_a (3g_gf (3e_ed | (3_dcB (3_BA_A (3G_GF | e_e =eB dc | %85
 A2 z C EA | B2 z E _AB | c2 z E e_e | e_e =eB dc | A2 z C EA | B2 z E cB | A2 z B cd | e2 z G fe | %93
 d2 z F ed | c2 z E dc | B2 z E eE | eb e'_e =e_e | e_e =e_e =e_e | e_e =eB dc | A2 z C EA | %100
 B2 z E _AB | c2 z E e_e | e_e =eB dc | A2 z C EA | B2 z E"^Rit." cB | A2 z4 | [Aa]2 z2 z2 |] %107
V:2
 z2 | z6 | A,E A z z2 | E,B, ^G z z2 | A,E A z z2 | z6 | A,E A z z2 | E,B, ^G z z2 |1 A,E A z :|2 %9
 A,E A z z2 |: CG c z z2 | G,G B z z2 | A,E A z z2 | E,E e z z2 | z2 z2 z2 | z6 | z6 | A,E A z z2 | %18
 E,B, ^G z z2 | A,E A z z2 | z6 | A,E A z z2 | E,B, ^G z z2 |1 A,E A z z2 :|2 %24
 A,E A[_Bc] [Ac][GBc] || FA cA cA | F_B dB dB | Fe [FG_B]e [FGB]e | FA cA cA | FA cA cA | %30
 EA cA [Dd]F | Ge Gf Gf | [CE]3 [FG] [EG][DFG] | [CEG]2 [FA]2 [GB]2 | [CE]3 [FG] [EG][DFG] | %35
 [CEG]2 [FA]2 [GB]2 | [^GB]2 z4 | z6 | z6 | z6 | z6 | A,E A z z2 | E,B, ^G z z2 | A,E A z z2 | z6 | %45
 A,E A z z2 | E,B, ^G z z2 | A,E A z z2 | CG c z z2 | G,G B z z2 | A,E A z z2 | E,E e z z2 | %52
 z2 z2 z2 | z6 | z6 | A,E A z z2 | E,B, ^G z z2 | A,E A z z2 | z6 | A,E A z z2 | E,B, ^G z z2 | %61
 A,A, A,A, A,A, | A,A, A,A, A,A, | A,A, A,A, A,A, | A,A, A,A, A,A, | A,A, A,A, A,A, | %66
 [A,D][A,D] [A,D][A,D] [A,D][A,D] | [A,^D][A,D] [A,D][A,D] [A,D][A,D] | %68
 [A,E][A,E] [A,E][A,E] [^G,E][G,E] | [A,A]A, A,A, A,A, | A,A, A,A, A,A, | A,A, A,A, A,A, | %72
 A,A, A,A, A,A, | ^A,A, A,A, A,A, | ^A,A, A,A, A,A, | ^A,A, A,A, A,A, | B,B, B,B, B,B, | C2 z4 | %78
 [E^G]2 z2 z2 | A,2 z2 [Ace]2 | [Ace]2 z2 [Ace]2 | [Ace]2 z2 [Ace]2 | [Ace]2 z2 z2 | z6 | z6 | %85
 A,E A z z2 | E,B, ^G z z2 | A,E A z z2 | z6 | A,E A z z2 | E,B, ^G z z2 | A,E A z z2 | CG c z z2 | %93
 G,G B z z2 | A,E A z z2 | E,E e z z2 | z6 | z6 | z6 | A,E A z z2 | E,B, ^G z z2 | A,E A z z2 | %102
 z6 | A,E A z z2 | E,B, ^G z z2 | A,C EA ce | !arpeggio![A,CEA]2 z4 |] %107

